static/assets/img/icons/theme/layout/layout-4-blocks.svg

<svg height="24" viewBox="0 0 24 24" width="24" xmlns="http://www.w3.org/2000/svg"><g fill="none" fill-rule="evenodd"><path d="m0 0h24v24h-24z" opacity="0"/><g fill="#000"><rect height="7" rx="1.5" width="7" x="4" y="4"/><path d="m5.5 13h4c.8284271 0 1.5.6715729 1.5 1.5v4c0 .8284271-.6715729 1.5-1.5 1.5h-4c-.82842712 0-1.5-.6715729-1.5-1.5v-4c0-.8284271.67157288-1.5 1.5-1.5zm9-9h4c.8284271 0 1.5.67157288 1.5 1.5v4c0 .8284271-.6715729 1.5-1.5 1.5h-4c-.8284271 0-1.5-.6715729-1.5-1.5v-4c0-.82842712.6715729-1.5 1.5-1.5zm0 9h4c.8284271 0 1.5.6715729 1.5 1.5v4c0 .8284271-.6715729 1.5-1.5 1.5h-4c-.8284271 0-1.5-.6715729-1.5-1.5v-4c0-.8284271.6715729-1.5 1.5-1.5z" opacity=".3"/></g></g></svg>

<svg width="24px" height="24px" viewBox="0 0 24 24" version="1.1" xmlns="http://www.w3.org/2000/svg" xmlns:xlink="http://www.w3.org/1999/xlink">
    <title>Icon For Layout-4-blocks</title>
    <g stroke="none" stroke-width="1" fill="none" fill-rule="evenodd">
        <rect opacity="0" x="0" y="0" width="24" height="24"></rect>
        <rect fill="#000000" x="4" y="4" width="7" height="7" rx="1.5"></rect>
        <path d="M5.5,13 L9.5,13 C10.3284271,13 11,13.6715729 11,14.5 L11,18.5 C11,19.3284271 10.3284271,20 9.5,20 L5.5,20 C4.67157288,20 4,19.3284271 4,18.5 L4,14.5 C4,13.6715729 4.67157288,13 5.5,13 Z M14.5,4 L18.5,4 C19.3284271,4 20,4.67157288 20,5.5 L20,9.5 C20,10.3284271 19.3284271,11 18.5,11 L14.5,11 C13.6715729,11 13,10.3284271 13,9.5 L13,5.5 C13,4.67157288 13.6715729,4 14.5,4 Z M14.5,13 L18.5,13 C19.3284271,13 20,13.6715729 20,14.5 L20,18.5 C20,19.3284271 19.3284271,20 18.5,20 L14.5,20 C13.6715729,20 13,19.3284271 13,18.5 L13,14.5 C13,13.6715729 13.6715729,13 14.5,13 Z" fill="#000000" opacity="0.3"></path>
    </g>
</svg>
